images/icons/instagram.svg

<svg width="14" height="14" viewBox="0 0 14 14" fill="none" xmlns="http://www.w3.org/2000/svg">
<path d="M10.2103 0H3.78967C1.70001 0 0 1.70001 0 3.78967V10.2104C0 12.3 1.70001 14 3.78967 14H10.2104C12.3 14 14 12.3 14 10.2104V3.78967C14 1.70001 12.3 0 10.2103 0V0ZM13.1792 10.2104C13.1792 11.8474 11.8474 13.1792 10.2103 13.1792H3.78967C2.15257 13.1792 0.820738 11.8474 0.820738 10.2104V3.78967C0.820738 2.15257 2.15257 0.820738 3.78967 0.820738H10.2104C11.8474 0.820738 13.1792 2.15257 13.1792 3.78967V10.2104Z" fill="#1C2D5A"/>
<path d="M7.00074 3.17188C4.88994 3.17188 3.17273 4.88908 3.17273 6.99989C3.17273 9.11069 4.88994 10.8279 7.00074 10.8279C9.11155 10.8279 10.8288 9.11069 10.8288 6.99989C10.8288 4.88908 9.11155 3.17188 7.00074 3.17188ZM7.00074 10.0072C5.3426 10.0072 3.99347 8.65813 3.99347 6.99989C3.99347 5.34175 5.3426 3.99261 7.00074 3.99261C8.65899 3.99261 10.008 5.34175 10.008 6.99989C10.008 8.65813 8.65899 10.0072 7.00074 10.0072Z" fill="#1C2D5A"/>
<path d="M10.9208 1.81226C10.297 1.81226 9.78967 2.31972 9.78967 2.94339C9.78967 3.56717 10.297 4.07463 10.9208 4.07463C11.5446 4.07463 12.052 3.56717 12.052 2.94339C12.052 2.31961 11.5446 1.81226 10.9208 1.81226ZM10.9208 3.25378C10.7497 3.25378 10.6104 3.1145 10.6104 2.94339C10.6104 2.77217 10.7497 2.63299 10.9208 2.63299C11.092 2.63299 11.2313 2.77217 11.2313 2.94339C11.2313 3.1145 11.092 3.25378 10.9208 3.25378Z" fill="#1C2D5A"/>
</svg>

<svg width="14" height="14" fill="none" xmlns="http://www.w3.org/2000/svg"><path d="M10.21 0H3.79C1.7 0 0 1.7 0 3.79v6.42C0 12.3 1.7 14 3.79 14h6.42C12.3 14 14 12.3 14 10.21V3.79C14 1.7 12.3 0 10.21 0Zm2.97 10.21a2.972 2.972 0 0 1-2.97 2.97H3.79a2.972 2.972 0 0 1-2.97-2.97V3.79A2.972 2.972 0 0 1 3.79.82h6.42a2.972 2.972 0 0 1 2.97 2.97v6.42Z" fill="#1C2D5A"/><path d="M7 3.172A3.832 3.832 0 0 0 3.174 7 3.832 3.832 0 0 0 7 10.828 3.832 3.832 0 0 0 10.829 7 3.832 3.832 0 0 0 7 3.172Zm0 6.835A3.01 3.01 0 0 1 3.994 7a3.01 3.01 0 0 1 3.008-3.007A3.01 3.01 0 0 1 10.008 7a3.01 3.01 0 0 1-3.007 3.007ZM10.92 1.812a1.132 1.132 0 0 0 0 2.263 1.132 1.132 0 0 0 0-2.262Zm0 1.442a.31.31 0 1 1 .002-.622.31.31 0 0 1-.001.622Z" fill="#1C2D5A"/></svg>
